sequoia/src/pages/Main/Utility/assets/seq.svg

<svg width="112" height="120" viewBox="0 0 112 120" fill="none" xmlns="http://www.w3.org/2000/svg">
<g filter="url(#filter0_dii_370_25045)">
<path d="M52.6266 11.8554C54.7272 10.7001 57.2729 10.7001 59.3734 11.8554L92.3734 30.0054C94.6103 31.2356 96 33.5861 96 36.1389V71.8611C96 74.4139 94.6103 76.7644 92.3734 77.9946L59.3734 96.1446C57.2729 97.2999 54.7271 97.2999 52.6266 96.1446L19.6266 77.9946C17.3897 76.7644 16 74.4139 16 71.8611V36.1389C16 33.5861 17.3897 31.2356 19.6266 30.0054L52.6266 11.8554Z" fill="url(#paint0_radial_370_25045)" fill-opacity="0.179" shape-rendering="crispEdges"/>
</g>
<path fill-rule="evenodd" clip-rule="evenodd" d="M51.685 34.0231C51.0542 34.1917 50.6332 34.9204 50.2815 36.4526C50.1612 36.9764 50.0176 37.5965 49.9625 37.8306C49.809 38.4812 49.3684 39.3469 49.1624 39.4024C49.0611 39.4298 48.8208 39.3816 48.6285 39.2953C48.4362 39.2089 48.0161 39.1314 47.6949 39.1229C47.1713 39.1091 47.0847 39.139 46.8574 39.4116C46.7181 39.5787 46.5503 39.901 46.4845 40.1275C46.1181 41.3898 46.0898 44.0049 46.4307 45.0857C46.6355 45.7351 47.0677 46.3103 47.6222 46.6716C47.8417 46.8147 48.0212 46.9766 48.0212 47.0318C48.0212 47.0868 47.8704 47.1763 47.6861 47.2306C46.0749 47.7061 44.5146 48.6611 44.145 49.3978C43.9154 49.8554 43.9635 50.622 44.2537 51.1334C44.7932 52.0835 46.3096 53.0656 47.9696 53.54C49.0753 53.856 50.9945 53.8796 51.8353 53.5877C52.5655 53.3341 53.3063 52.9504 53.4779 52.7368C53.5523 52.6444 53.6769 52.5689 53.7549 52.5689C54.1775 52.5689 53.5844 63.5555 52.9274 67.9019C52.4393 71.1303 51.7518 73.2779 50.9594 74.0494C50.5571 74.441 50.5185 74.6054 50.7677 74.8627C50.9693 75.0707 51.371 74.9997 51.6812 74.701C52.158 74.242 52.7913 72.9039 53.0904 71.7234C53.4109 70.4587 53.7353 68.7672 53.8864 67.5732C53.9492 67.0757 54.0437 66.3335 54.0961 65.9238C54.3766 63.7356 54.6819 58.9689 54.8404 54.3027C54.9707 50.4659 54.968 50.4404 54.4256 50.4408C54.2177 50.4409 54.0881 50.5498 53.8684 50.9087C52.9901 52.3438 51.5768 52.9865 49.597 52.8507C48.4101 52.7693 47.9069 52.6232 46.6811 52.0036C45.4295 51.3712 44.6784 50.4862 44.923 49.9322C45.219 49.2612 46.3639 48.6544 48.8974 47.8254C50.0147 47.4597 50.3921 47.2197 50.3921 46.8746C50.3921 46.5745 50.0406 46.2905 49.6693 46.2905C49.236 46.2905 48.223 45.9825 47.9176 45.758C47.7611 45.6429 47.5233 45.3207 47.389 45.0418C47.1594 44.5647 47.1457 44.4278 47.157 42.7256C47.1737 40.2074 47.3763 39.7174 48.2153 40.1652C48.3864 40.2566 48.7685 40.3313 49.0646 40.3313C49.5682 40.3313 49.6314 40.3004 50.0489 39.8505C50.2944 39.5862 50.4952 39.2845 50.4952 39.1801C50.4952 39.0758 50.5363 38.9449 50.5866 38.8894C50.6713 38.796 50.8551 38.0788 51.1308 36.7664C51.3075 35.9257 51.6381 35.1196 51.8555 34.9994C52.02 34.9086 52.1558 34.97 52.6289 35.349C53.6949 36.2029 53.9474 36.3748 54.3259 36.505C54.9237 36.7104 55.0784 36.6399 56.4216 35.5518C56.9893 35.0919 57.0054 35.0864 57.1856 35.2858C57.2868 35.3979 57.4484 35.8398 57.5447 36.268C58.0075 38.3267 58.7565 39.0483 60.4348 39.0527C61.2051 39.0548 62.5647 39.3085 63.6607 39.6547C66.5809 40.5772 67.2008 42.6515 65.1851 44.7547C64.5593 45.4076 64.0285 45.7584 63.6664 45.7584C63.5575 45.7584 63.1442 45.542 62.748 45.2773C61.8064 44.6485 61.2986 44.5071 60.5898 44.676C60.0272 44.8099 59.175 45.3836 58.3296 46.1973C57.7111 46.7925 57.0826 47.0768 56.5924 46.983C55.9172 46.8538 55.1321 46.1056 54.3542 44.8502C54.1594 44.5359 54.0001 44.2286 54.0001 44.1673C54.0001 44.106 53.9611 44.0558 53.9136 44.0558C53.8659 44.0558 53.7768 43.9419 53.7153 43.8028C53.5548 43.4391 52.9719 42.7788 52.8113 42.7788C52.55 42.7788 52.3321 43.1131 52.403 43.405C52.4399 43.5569 52.5058 43.7056 52.5492 43.7355C52.5927 43.7653 52.9814 44.3644 53.4129 45.0667C54.2593 46.4442 55.0514 47.3583 55.6905 47.6953C55.9683 47.8417 56.3036 47.9086 56.775 47.9116C57.6081 47.917 58.0402 47.7117 59.0249 46.8427C60.3317 45.6892 60.4674 45.6063 61.0494 45.6063C61.4852 45.6063 61.6692 45.6714 62.093 45.9749C62.8894 46.5452 63.0518 46.6097 63.6921 46.6097C64.4714 46.6097 64.9867 46.3308 65.8552 45.4392C66.8521 44.4157 67.3902 43.1198 67.2664 42.0407C67.0121 39.8238 64.8133 38.5266 60.6061 38.1114C59.0598 37.9588 58.844 37.7397 58.3779 35.8485C58.2491 35.3262 58.0672 34.7782 57.9736 34.6307C57.7538 34.2844 57.3427 34.1272 56.8875 34.2152C56.5395 34.2825 55.4235 35.023 55.1417 35.3735C54.856 35.7289 54.1731 35.5016 53.5027 34.8279C52.9374 34.2599 52.1326 33.9035 51.685 34.0231ZM60.1336 47.5258C58.808 48.2258 58.4856 48.7768 58.5582 50.2176C58.6292 51.6231 59.2049 52.6292 60.2401 53.1567C61.0097 53.549 63.3056 53.4918 65.0301 53.0376C66.8457 52.5594 68.2804 51.2005 67.9533 50.2686C67.6743 49.4741 66.9707 49.0702 65.3876 48.7961C63.7577 48.5139 63.2117 48.3113 62.0734 47.5661C61.4483 47.1568 60.8557 47.1446 60.1336 47.5258ZM61.9351 48.5768C62.8235 49.1646 63.6039 49.4426 65.0779 49.6962C66.3951 49.923 66.5466 49.9711 66.8598 50.2622C67.1678 50.5483 67.1531 50.6727 66.7656 51.0638C66.1208 51.7146 64.7956 52.2207 63.123 52.4548C61.5505 52.675 60.8535 52.5634 60.2387 51.9926C59.6539 51.4496 59.4497 50.9472 59.4463 50.0433C59.4436 49.3584 59.4756 49.2171 59.6854 48.9849C59.9001 48.7471 60.9381 48.118 61.1376 48.1046C61.1796 48.1019 61.5384 48.3143 61.9351 48.5768ZM57.3663 51.8058C57.2148 51.9786 57.1956 52.3973 57.1951 55.5569C57.1939 62.3905 57.6366 69.353 58.2297 71.8298C58.7858 74.1516 59.4376 75.23 60.1214 74.9591C60.4636 74.8235 60.4214 74.4944 60.0016 74.0243C59.4664 73.4249 59.1922 72.5034 58.8578 70.1804C58.4128 67.088 58.1285 61.1201 58.125 54.7983C58.1239 52.6618 58.0898 51.8319 57.9997 51.7389C57.8211 51.5544 57.5627 51.5818 57.3663 51.8058Z" fill="white" stroke="white" stroke-width="2"/>
<defs>
<filter id="filter0_dii_370_25045" x="0" y="0.98877" width="112" height="118.022" filterUnits="userSpaceOnUse" color-interpolation-filters="sRGB">
<feFlood flood-opacity="0" result="BackgroundImageFix"/>
<feColorMatrix in="SourceAlpha" type="matrix" values="0 0 0 0 0 0 0 0 0 0 0 0 0 0 0 0 0 0 127 0" result="hardAlpha"/>
<feOffset dy="6"/>
<feGaussianBlur stdDeviation="8"/>
<feComposite in2="hardAlpha" operator="out"/>
<feColorMatrix type="matrix" values="0 0 0 0 0 0 0 0 0 0 0 0 0 0 0 0 0 0 0.25 0"/>
<feBlend mode="normal" in2="BackgroundImageFix" result="effect1_dropShadow_370_25045"/>
<feBlend mode="normal" in="SourceGraphic" in2="effect1_dropShadow_370_25045" result="shape"/>
<feColorMatrix in="SourceAlpha" type="matrix" values="0 0 0 0 0 0 0 0 0 0 0 0 0 0 0 0 0 0 127 0" result="hardAlpha"/>
<feOffset dx="-1.12" dy="1.12"/>
<feGaussianBlur stdDeviation="0.56"/>
<feComposite in2="hardAlpha" operator="arithmetic" k2="-1" k3="1"/>
<feColorMatrix type="matrix" values="0 0 0 0 1 0 0 0 0 1 0 0 0 0 1 0 0 0 0.558 0"/>
<feBlend mode="normal" in2="shape" result="effect2_innerShadow_370_25045"/>
<feColorMatrix in="SourceAlpha" type="matrix" values="0 0 0 0 0 0 0 0 0 0 0 0 0 0 0 0 0 0 127 0" result="hardAlpha"/>
<feOffset dx="1.12" dy="-1.12"/>
<feGaussianBlur stdDeviation="0.56"/>
<feComposite in2="hardAlpha" operator="arithmetic" k2="-1" k3="1"/>
<feColorMatrix type="matrix" values="0 0 0 0 0.84 0 0 0 0 0.84 0 0 0 0 0.84 0 0 0 0.558 0"/>
<feBlend mode="normal" in2="effect2_innerShadow_370_25045" result="effect3_innerShadow_370_25045"/>
</filter>
<radialGradient id="paint0_radial_370_25045" cx="0" cy="0" r="1" gradientUnits="userSpaceOnUse" gradientTransform="translate(56 54) rotate(90) scale(44 40)">
<stop stop-color="white"/>
<stop offset="1" stop-color="white" stop-opacity="0.21"/>
</radialGradient>
</defs>
</svg>

<svg width="112" height="120" fill="none" xmlns="http://www.w3.org/2000/svg"><g filter="url(#a)"><path d="M52.63 11.86a7 7 0 0 1 6.74 0l33 18.15A7 7 0 0 1 96 36.14v35.72A7 7 0 0 1 92.37 78l-33 18.15a7 7 0 0 1-6.74 0L19.63 78A7 7 0 0 1 16 71.86V36.14A7 7 0 0 1 19.63 30l33-18.15Z" fill="url(#b)" fill-opacity=".18" shape-rendering="crispEdges"/></g><path fill-rule="evenodd" clip-rule="evenodd" d="M51.69 34.02c-.64.17-1.06.9-1.4 2.43l-.33 1.38c-.15.65-.6 1.52-.8 1.57-.1.03-.34-.02-.53-.1a3 3 0 0 0-.94-.18c-.52-.01-.6.02-.83.3-.14.16-.31.48-.38.7-.36 1.27-.39 3.88-.05 4.97.2.65.64 1.22 1.2 1.58.21.14.4.3.4.36s-.16.15-.34.2c-1.62.48-3.18 1.43-3.54 2.17-.23.46-.19 1.22.1 1.73.54.95 2.06 1.94 3.72 2.41 1.1.32 3.02.34 3.87.05a4.97 4.97 0 0 0 1.64-.85c.07-.1.2-.17.27-.17.43 0-.17 10.99-.82 15.33-.5 3.23-1.18 5.38-1.97 6.15-.4.4-.44.56-.2.81.2.21.61.14.92-.16a7.67 7.67 0 0 0 1.41-2.98 38.9 38.9 0 0 0 1-5.8c.29-2.18.6-6.95.75-11.62.13-3.83.13-3.86-.41-3.86-.21 0-.34.11-.56.47-.88 1.43-2.3 2.08-4.27 1.94a6.16 6.16 0 0 1-2.92-.85c-1.25-.63-2-1.51-1.76-2.07.3-.67 1.44-1.28 3.98-2.1 1.11-.37 1.5-.61 1.5-.96 0-.3-.36-.58-.73-.58-.43 0-1.45-.3-1.75-.53a2.3 2.3 0 0 1-.53-.72c-.23-.48-.24-.61-.23-2.31.01-2.52.22-3.01 1.06-2.56.17.09.55.16.84.16.5 0 .57-.03.99-.48.24-.26.45-.57.45-.67a11.23 11.23 0 0 0 .64-2.41c.17-.84.5-1.65.72-1.77.16-.1.3-.03.77.35 1.06.85 1.32 1.02 1.7 1.16.6.2.75.13 2.1-.96.56-.46.58-.46.76-.26.1.1.26.55.35.98.47 2.06 1.22 2.78 2.9 2.78.77 0 2.12.26 3.22.6 2.92.93 3.54 3 1.53 5.1-.63.66-1.16 1-1.52 1-.11 0-.53-.2-.92-.47-.94-.63-1.45-.77-2.16-.6a6 6 0 0 0-2.26 1.52c-.62.6-1.25.88-1.74.78-.67-.13-1.46-.87-2.24-2.13-.2-.31-.35-.62-.35-.68 0-.06-.04-.11-.09-.11-.04 0-.13-.12-.2-.26-.16-.36-.74-1.02-.9-1.02-.26 0-.48.33-.4.63.03.15.1.3.14.33.04.03.43.62.86 1.33.85 1.37 1.64 2.29 2.28 2.63.28.14.61.2 1.09.21.83 0 1.26-.2 2.24-1.07 1.31-1.15 1.45-1.23 2.03-1.23.44 0 .62.06 1.04.36.8.58.96.64 1.6.64.78 0 1.3-.28 2.17-1.17 1-1.02 1.53-2.32 1.4-3.4-.25-2.22-2.45-3.51-6.65-3.93-1.55-.15-1.77-.37-2.23-2.26a6.2 6.2 0 0 0-.4-1.22c-.23-.35-.64-.5-1.1-.41-.34.06-1.46.8-1.74 1.15-.28.36-.97.13-1.64-.54-.56-.57-1.37-.93-1.81-.8Zm8.44 13.5c-1.32.7-1.64 1.26-1.57 2.7.07 1.4.64 2.4 1.68 2.94.77.39 3.07.33 4.79-.12 1.82-.48 3.25-1.84 2.92-2.77-.28-.8-.98-1.2-2.56-1.47a6.97 6.97 0 0 1-3.32-1.23c-.62-.41-1.21-.43-1.94-.04Zm1.8 1.06c.9.58 1.67.86 3.15 1.12 1.32.22 1.47.27 1.78.56.3.29.3.41-.1.8-.64.65-1.96 1.16-3.64 1.4-1.57.21-2.27.1-2.88-.47-.59-.54-.79-1.04-.8-1.95 0-.68.04-.82.25-1.06a5.24 5.24 0 0 1 1.45-.88c.04 0 .4.21.8.48Zm-4.56 3.23c-.16.17-.17.59-.17 3.75 0 6.83.44 13.8 1.03 16.27.56 2.32 1.2 3.4 1.9 3.13.33-.14.3-.47-.13-.94-.53-.6-.8-1.52-1.14-3.84-.45-3.1-.73-9.06-.73-15.38 0-2.14-.04-2.97-.13-3.06-.18-.19-.44-.16-.63.07Z" fill="#fff" stroke="#fff" stroke-width="2"/><defs><radialGradient id="b" cx="0" cy="0" r="1" gradientUnits="userSpaceOnUse" gradientTransform="matrix(0 44 -40 0 56 54)"><stop stop-color="#fff"/><stop offset="1" stop-color="#fff" stop-opacity=".21"/></radialGradient><filter id="a" x="0" y=".99" width="112" height="118.02" filterUnits="userSpaceOnUse" color-interpolation-filters="sRGB"><feFlood flood-opacity="0" result="BackgroundImageFix"/><feColorMatrix in="SourceAlpha" values="0 0 0 0 0 0 0 0 0 0 0 0 0 0 0 0 0 0 127 0" result="hardAlpha"/><feOffset dy="6"/><feGaussianBlur stdDeviation="8"/><feComposite in2="hardAlpha" operator="out"/><feColorMatrix values="0 0 0 0 0 0 0 0 0 0 0 0 0 0 0 0 0 0 0.25 0"/><feBlend in2="BackgroundImageFix" result="effect1_dropShadow_370_25045"/><feBlend in="SourceGraphic" in2="effect1_dropShadow_370_25045" result="shape"/><feColorMatrix in="SourceAlpha" values="0 0 0 0 0 0 0 0 0 0 0 0 0 0 0 0 0 0 127 0" result="hardAlpha"/><feOffset dx="-1.12" dy="1.12"/><feGaussianBlur stdDeviation=".56"/><feComposite in2="hardAlpha" operator="arithmetic" k2="-1" k3="1"/><feColorMatrix values="0 0 0 0 1 0 0 0 0 1 0 0 0 0 1 0 0 0 0.558 0"/><feBlend in2="shape" result="effect2_innerShadow_370_25045"/><feColorMatrix in="SourceAlpha" values="0 0 0 0 0 0 0 0 0 0 0 0 0 0 0 0 0 0 127 0" result="hardAlpha"/><feOffset dx="1.12" dy="-1.12"/><feGaussianBlur stdDeviation=".56"/><feComposite in2="hardAlpha" operator="arithmetic" k2="-1" k3="1"/><feColorMatrix values="0 0 0 0 0.84 0 0 0 0 0.84 0 0 0 0 0.84 0 0 0 0.558 0"/><feBlend in2="effect2_innerShadow_370_25045" result="effect3_innerShadow_370_25045"/></filter></defs></svg>
